src/assets/svgs/refactor/story-bridge.svg

<svg fill="none" height="26" viewBox="0 0 43 26" width="43" xmlns="http://www.w3.org/2000/svg" xmlns:xlink="http://www.w3.org/1999/xlink"><clipPath id="a"><path d="m0 0h43v26h-43z"/></clipPath><g clip-path="url(#a)" fill="#fff"><path d="m1.58269 8.44933c-.72546 0-1.319018-.59877-1.319018-1.3306s.593558-1.3306 1.319018-1.3306h8.70551v-3.12692h-8.70551c-.72546 0-1.319018-.59877-1.319018-1.33061 0-.731828.593558-1.3306 1.319018-1.3306h39.83431c.7255 0 1.3191.598772 1.3191 1.3306 0 .73184-.5936 1.33061-1.3191 1.33061h-8.7055v3.14022h8.7055c.7255 0 1.3191.59877 1.3191 1.33061 0 .73183-.5936 1.3306-1.3191 1.3306h-39.83431zm28.49081-2.6612v-3.12692h-7.2546v3.14022h7.2546zm-9.8927 0v-3.12692h-7.2546v3.14022h7.2546z"/><path d="m29.4666 25.9995c-.7254 0-1.319-.5987-1.319-1.3306v-3.3132c0-3.699-2.981-6.7062-6.6478-6.7062-3.6669 0-6.6479 3.0072-6.6479 6.7062v3.3132c0 .7319-.5936 1.3306-1.319 1.3306-.7255 0-1.319-.5987-1.319-1.3306v-3.3132c0-5.1627 4.1681-9.3674 9.2859-9.3674 5.1177 0 9.2858 4.2047 9.2858 9.3674v3.3132c0 .7319-.5935 1.3306-1.319 1.3306z"/><path d="m8.37577 22.5669c-.77822 0-1.41135-.6386-1.41135-1.4237v-.6919c0-3.087-2.49295-5.6019-5.55307-5.6019-.778221 0-1.41135-.6386-1.41135-1.4237s.633129-1.4237 1.41135-1.4237c4.61657 0 8.37577 3.7922 8.37577 8.4493v.6919c0 .7851-.63313 1.4237-1.41135 1.4237z"/><path d="m34.6242 22.5669c.7783 0 1.4114-.6386 1.4114-1.4237v-.6919c0-3.087 2.4929-5.6019 5.5531-5.6019.7782 0 1.4113-.6386 1.4113-1.4237s-.6331-1.4237-1.4113-1.4237c-4.6166 0-8.3758 3.7922-8.3758 8.4493v.6919c0 .7851.6331 1.4237 1.4113 1.4237z"/></g></svg>

<svg width="43" height="26" viewBox="0 0 43 26" fill="none" xmlns="http://www.w3.org/2000/svg">
<g clip-path="url(#clip0_2513_9675)">
<path d="M1.58269 8.44933C0.85723 8.44933 0.263672 7.85056 0.263672 7.11873C0.263672 6.3869 0.85723 5.78813 1.58269 5.78813H10.2882V2.66121H1.58269C0.85723 2.66121 0.263672 2.06244 0.263672 1.3306C0.263672 0.598772 0.85723 0 1.58269 0H41.417C42.1425 0 42.7361 0.598772 42.7361 1.3306C42.7361 2.06244 42.1425 2.66121 41.417 2.66121H32.7115V5.80143H41.417C42.1425 5.80143 42.7361 6.4002 42.7361 7.13204C42.7361 7.86387 42.1425 8.46264 41.417 8.46264H1.58269V8.44933ZM30.0735 5.78813V2.66121H22.8189V5.80143H30.0735V5.78813ZM20.1808 5.78813V2.66121H12.9262V5.80143H20.1808V5.78813Z" fill="white"/>
<path d="M29.4666 25.9995C28.7412 25.9995 28.1476 25.4008 28.1476 24.6689V21.3557C28.1476 17.6567 25.1666 14.6495 21.4998 14.6495C17.8329 14.6495 14.8519 17.6567 14.8519 21.3557V24.6689C14.8519 25.4008 14.2583 25.9995 13.5329 25.9995C12.8074 25.9995 12.2139 25.4008 12.2139 24.6689V21.3557C12.2139 16.193 16.382 11.9883 21.4998 11.9883C26.6175 11.9883 30.7856 16.193 30.7856 21.3557V24.6689C30.7856 25.4008 30.1921 25.9995 29.4666 25.9995Z" fill="white"/>
<path d="M8.37577 22.5669C7.59755 22.5669 6.96442 21.9283 6.96442 21.1432V20.4513C6.96442 17.3643 4.47147 14.8494 1.41135 14.8494C0.633129 14.8494 0 14.2108 0 13.4257C0 12.6406 0.633129 12.002 1.41135 12.002C6.02792 12.002 9.78712 15.7942 9.78712 20.4513V21.1432C9.78712 21.9283 9.15399 22.5669 8.37577 22.5669Z" fill="white"/>
<path d="M34.6242 22.5669C35.4025 22.5669 36.0356 21.9283 36.0356 21.1432V20.4513C36.0356 17.3643 38.5285 14.8494 41.5887 14.8494C42.3669 14.8494 43 14.2108 43 13.4257C43 12.6406 42.3669 12.002 41.5887 12.002C36.9721 12.002 33.2129 15.7942 33.2129 20.4513V21.1432C33.2129 21.9283 33.846 22.5669 34.6242 22.5669Z" fill="white"/>
</g>
<defs>
<clipPath id="clip0_2513_9675">
<rect width="43" height="26" fill="white"/>
</clipPath>
</defs>
</svg>
